packages/foundations/assets/icons/functional/images/transportation/taxi_14_inverted.svg

<svg width="14" height="14" viewBox="0 0 14 14" fill="none" xmlns="http://www.w3.org/2000/svg">
<g clip-path="url(#clip0_2214_6776)">
<path fill-rule="evenodd" clip-rule="evenodd" d="M9.10002 1.75V2.8042L9.59386 2.80471C10.1631 2.85152 10.698 3.28612 10.843 3.78707C10.9396 4.12104 11.1293 4.95868 11.4121 6.3H12.6V7.70235L11.8265 7.7C11.7215 8.74492 11.6515 9.35835 11.6165 9.54029C11.564 9.81321 11.4121 10.1701 11.2 10.3782V12.25H9.45002V11.0187C8.63336 11.1396 7.81669 11.2 7.00002 11.2C6.18336 11.2 5.36669 11.1396 4.55002 11.0187V12.25H2.80002V10.3782C2.63897 10.2223 2.48896 9.94673 2.41503 9.67497C2.36574 9.4938 2.28501 8.83548 2.17282 7.7L1.40002 7.70235V6.3H2.58722L3.12004 3.89786C3.28665 3.33431 3.73764 2.91053 4.29364 2.81861C4.41241 2.80104 4.61454 2.79624 4.90002 2.8042V1.75H9.10002ZM8.40002 7.805H5.60002V8.995H8.40002V7.805ZM10.5 7.805H9.10002V8.995H10.5V7.805ZM4.90002 7.805H3.50002V8.995H4.90002V7.805ZM9.73964 3.99H4.26041L3.81012 6.3H10.1892L9.73964 3.99Z" fill="#1A1C1F"/>
</g>
<defs>
<clipPath id="clip0_2214_6776">
<rect width="14" height="14" fill="white"/>
</clipPath>
</defs>
</svg>

<svg xmlns="http://www.w3.org/2000/svg" width="14" height="14" fill="none"><g clip-path="url(#a)"><path fill="#1A1C1F" fill-rule="evenodd" d="M9.1 1.75v1.054h.494c.57.048 1.104.482 1.249.983q.145.501.57 2.513H12.6v1.402l-.774-.002q-.157 1.567-.21 1.84c-.052.273-.204.63-.416.838v1.872H9.45v-1.231a16.7 16.7 0 0 1-4.9 0v1.231H2.8v-1.872c-.161-.156-.311-.431-.385-.703q-.074-.272-.242-1.975l-.773.002V6.3h1.187l.533-2.402c.167-.564.618-.987 1.174-1.08a4 4 0 0 1 .606-.014V1.75zm-.7 6.055H5.6v1.19h2.8zm2.1 0H9.1v1.19h1.4zm-5.6 0H3.5v1.19h1.4zM9.74 3.99H4.26L3.81 6.3h6.38z" clip-rule="evenodd"/></g><defs><clipPath id="a"><path fill="#fff" d="M0 0h14v14H0z"/></clipPath></defs></svg>
